usr/share/icons/biglinux-icons-material/32/actions/gnumeric-format-valign-distributed.svg

<svg xmlns="http://www.w3.org/2000/svg" viewBox="0 0 32 32"><path d="M4 4v1h24V4H4zm0 3v1h14V7H4zm0 7v1h20v-1H4zm0 3v1h8v-1H4zm0 7v1h20v-1H4zm0 3v1h16v-1H4zm20 1v1h4v-1h-4z" style="fill:currentColor;fill-opacity:1;stroke:none;color:#dedede"/></svg>

<svg xmlns="http://www.w3.org/2000/svg" viewBox="0 0 32 32">
  <defs
     id="defs3051">
    <style
       type="text/css"
       id="current-color-scheme">
      .ColorScheme-Text {
        color:#363636;
      }
      </style>
  </defs>
  <path
     style="fill:currentColor;fill-opacity:1;stroke:none" 
     d="M 4 4 L 4 5 L 28 5 L 28 4 L 4 4 z M 4 7 L 4 8 L 18 8 L 18 7 L 4 7 z M 4 14 L 4 15 L 24 15 L 24 14 L 4 14 z M 4 17 L 4 18 L 12 18 L 12 17 L 4 17 z M 4 24 L 4 25 L 24 25 L 24 24 L 4 24 z M 4 27 L 4 28 L 20 28 L 20 27 L 4 27 z M 24 28 L 24 29 L 28 29 L 28 28 L 24 28 z "
     class="ColorScheme-Text"
     />
</svg>
